X: 40961
T: Trip To Cullenstown, The
R: reel
M: 4/4
K: Gmajor
|:Bd {g}de dBGA|B2 {d}BG AG (3EFG|[B3d3G3] e dBGA|{d}BAGB [F4A4]|
BABd e2 dB|dedB AG (3EFG|B2 BG AGEG|1 DGGF G3c:|2 DGGF G3 A||
|:Bd d/e/d ce e/f/e|d2 {g}de dBGA|Bd d/e/d ed d/e/d|{b}gedB [F4A4]|
BABd e2 dB|dedB AG (3EFG|B2 BG AG (3EFG|1 DGGF [D3G3] A:|2 DGGF [G4B4D4]||

